images/logo-dark.svg

<?xml version="1.0" encoding="UTF-8"?>
<!-- Generated by Pixelmator Pro 4.0 -->
<svg width="139" height="32" viewBox="0 0 139 32" xmlns="http://www.w3.org/2000/svg">
    <path id="Path" fill="#fafafa" stroke="none" visibility="hidden" d="M 15.596 15.756001 L 27.188 15.756001 C 27.342445 15.766621 27.465378 15.889555 27.476 16.044001 L 27.476 16.115999 C 27.476 16.26 27.403999 16.368 27.26 16.403999 C 26.396 16.691999 25.676001 18.6 25.604 20.903999 L 25.604 31.091999 C 25.604 31.200001 25.568001 31.236 25.496 31.236 C 25.459999 31.236 25.424 31.200001 25.388 31.164 C 24.410437 30.038248 22.990944 29.39422 21.5 29.4 C 20.708 29.4 19.916 29.58 19.16 29.940001 C 17.468 30.804001 15.56 31.200001 13.112 31.200001 C 4.472 31.200001 0.08 24.288 0.08 15.756001 C 0.08 7.223999 3.788 0.312 13.436 0.312 C 19.52 0.312 23.624001 2.976 25.172001 7.332001 C 25.532 8.375999 25.712 9.276001 25.712 10.068001 C 25.712 12.552 24.056 13.812 21.931999 13.992001 L 21.535999 13.992001 C 19.448 13.992001 17.648001 12.695999 17.360001 9.779999 C 16.892 4.883999 16.172001 0.924 13.436 0.924 C 10.304 0.924 8.252 4.92 8.252 11.832001 L 8.252 12.695999 C 8.504 23.243999 13.184 26.916 16.82 27.275999 L 16.892 27.275999 C 17.035999 27.275999 17.143999 27.132 17.143999 26.988001 L 17.143999 21.264 C 17.143999 18.816 16.424 16.691999 15.524 16.403999 C 15.38 16.368 15.308 16.26 15.308 16.115999 L 15.308 16.044001 C 15.308 15.9 15.416 15.756001 15.596 15.756001 Z M 48.526001 25.332001 C 48.613728 25.386051 48.667973 25.48098 48.669998 25.584 C 48.669998 25.620001 48.669998 25.656 48.633999 25.691999 C 47.625999 27.996 44.674 31.200001 39.417999 31.200001 C 32.866001 31.200001 28.978001 26.448 28.978001 20.544001 C 28.978001 20.292 28.978001 20.004 29.014 19.752001 C 29.014 19.535999 29.049999 19.356001 29.049999 19.139999 C 29.625999 13.92 33.369999 9.924 39.417999 9.924 C 46.438 9.924 48.958 14.639999 49.389999 19.139999 C 49.389999 19.212 49.389999 19.284 49.425999 19.356001 C 49.425999 19.572001 49.282001 19.752001 49.066002 19.752001 L 37.293999 19.752001 C 37.207989 19.751734 37.125423 19.785784 37.064602 19.846603 C 37.003784 19.907423 36.969734 19.989988 36.970001 20.076 C 37.042 21.516001 37.582001 27.348 43.198002 27.348 C 44.745998 27.348 47.158001 26.628 48.130001 25.403999 C 48.202 25.332001 48.273998 25.296 48.346001 25.296 C 48.417999 25.296 48.453999 25.296 48.526001 25.332001 Z M 39.417999 10.535999 C 37.762001 10.535999 36.933998 13.524 36.933998 18.492001 L 36.933998 18.816 C 36.933998 18.996 37.113998 19.139999 37.293999 19.139999 L 41.146 19.139999 C 41.344822 19.139999 41.506001 18.978823 41.506001 18.780001 C 41.433998 14.928001 41.074001 10.535999 39.417999 10.535999 Z M 67.382004 18.167999 C 67.166 18.204 66.949997 18.204 66.734001 18.204 C 64.321999 18.204 63.206001 16.548 63.026001 14.028 C 62.917999 12.624001 62.234001 12.228001 61.838001 12.228001 C 61.442001 12.228001 61.082001 12.336 60.326 13.812 C 60.217999 14.028 60.146 14.243999 60.146 14.496 L 60.146 25.836 C 60.146 28.212 60.830002 30.264 61.694 30.552 C 61.801998 30.587999 61.91 30.732 61.91 30.84 L 61.91 30.912001 C 61.89938 31.066444 61.776443 31.189379 61.622002 31.200001 L 50.605999 31.200001 C 50.451557 31.189379 50.328621 31.066444 50.318001 30.912001 L 50.318001 30.84 C 50.318001 30.732 50.425999 30.587999 50.534 30.552 C 51.542 30.264 52.298 28.104 52.298 25.620001 L 52.298 16.799999 C 52.298 14.352001 51.793999 12.48 50.641998 11.939999 C 50.516651 11.898903 50.430359 11.78384 50.425999 11.652 L 50.425999 11.616001 C 50.425999 11.436001 50.57 11.327999 50.714001 11.327999 L 51.613998 11.327999 C 52.874001 11.327999 54.313999 11.256001 55.897999 11.040001 C 57.59 10.751999 58.598 10.355999 59.75 9.959999 C 59.785999 9.959999 59.821999 9.924 59.858002 9.924 C 60.001999 9.924 60.146 10.068001 60.146 10.248001 L 60.146 13.056 C 60.146 13.091999 60.181999 13.128 60.217999 13.128 C 60.254002 13.128 60.290001 13.128 60.290001 13.091999 C 61.478001 10.860001 63.242001 9.383999 65.690002 9.383999 C 67.706001 9.383999 69.073997 10.392 69.865997 11.723999 C 70.262001 12.336 70.514 13.271999 70.514 14.243999 C 70.514 16.007999 69.685997 17.844 67.382004 18.167999 Z M 82.167 9.924 C 88.754997 9.924 92.607002 14.675999 92.607002 20.544001 C 92.607002 26.448 88.754997 31.200001 82.167 31.200001 C 75.614998 31.200001 71.763 26.448 71.763 20.544001 C 71.763 14.675999 75.614998 9.924 82.167 9.924 Z M 82.167 30.587999 C 84.327003 30.587999 84.614998 26.087999 84.614998 20.544001 C 84.614998 15 84.327003 10.5 82.167 10.5 C 80.042999 10.5 79.754997 15 79.754997 20.544001 C 79.754997 26.087999 80.042999 30.587999 82.167 30.587999 Z M 118.309998 30.552 C 118.417999 30.624001 118.526001 30.695999 118.526001 30.84 L 118.526001 30.912001 C 118.526001 31.056 118.382004 31.200001 118.202003 31.200001 L 112.190002 31.200001 C 110.353996 31.200001 108.842003 29.76 108.806 27.924 C 108.806 27.888 108.806 27.888 108.769997 27.888 C 108.769997 27.888 108.734001 27.888 108.734001 27.924 C 107.582001 29.940001 104.846001 31.200001 102.362 31.200001 C 96.926003 31.200001 96.026001 26.556 96.026001 23.892 L 96.026001 16.691999 C 96.026001 14.316 95.377998 12.264 94.514 11.976 C 94.370003 11.903999 94.297997 11.796 94.297997 11.688 L 94.297997 11.616001 C 94.297997 11.436001 94.405998 11.327999 94.585999 11.327999 L 95.197998 11.327999 C 96.421997 11.327999 97.825996 11.256001 99.337997 10.968 C 100.744232 10.750755 102.129295 10.413525 103.477997 9.959999 C 103.514 9.959999 103.550003 9.924 103.585999 9.924 C 103.765999 9.924 103.910004 10.068001 103.910004 10.248001 L 103.910004 24.431999 C 103.910004 27.708 104.089996 29.327999 105.998001 29.327999 C 106.358002 29.327999 107.617996 29.112 108.697998 27.132 C 108.769997 27.059999 108.806 26.916 108.806 26.808001 L 108.806 16.691999 C 108.806 14.316 108.122002 12.264 107.258003 11.976 C 107.113998 11.903999 107.042 11.796 107.042 11.688 L 107.042 11.616001 C 107.042 11.436001 107.185997 11.327999 107.330002 11.327999 L 108.122002 11.327999 C 109.309998 11.327999 110.678001 11.256001 112.190002 11.004 C 113.563454 10.781715 114.913261 10.432209 116.222 9.959999 C 116.258003 9.959999 116.293999 9.924 116.330002 9.924 C 116.510002 9.924 116.653999 10.068001 116.653999 10.248001 L 116.653999 25.836 C 116.653999 28.284 117.122002 30.048 118.309998 30.552 Z M 127.431999 12.948 C 127.431999 18.42 138.772003 18.851999 138.807999 25.224001 L 138.807999 25.26 C 138.807999 29.868 133.264008 31.164 129.699997 31.200001 C 127 31.200001 123.543999 30.587999 121.708 29.256001 C 120.699997 28.5 120.232002 27.455999 120.232002 26.448 C 120.232002 25.007999 121.239998 23.676001 123.075996 23.676001 L 123.148003 23.676001 C 124.767998 23.676001 126.028 25.044001 126.064003 26.628 C 126.064003 28.535999 126.244003 30.587999 128.871994 30.587999 C 130.563995 30.587999 131.751999 29.364 131.751999 27.924 C 131.751999 23.459999 120.519997 21.948 120.484001 16.152 L 120.484001 16.115999 C 120.484001 10.931999 125.884003 9.924 129.123993 9.924 L 129.268005 9.924 C 131.427994 9.924 135.063995 10.824001 136.792007 12.048 C 137.764008 12.768 138.231995 13.776001 138.231995 14.675999 C 138.231995 16.115999 137.188004 17.375999 135.423996 17.412001 L 135.315994 17.412001 C 133.839996 17.412001 132.796005 16.224001 132.507996 14.784 C 131.932007 11.796 131.212006 10.535999 129.447998 10.535999 C 128.440002 10.535999 127.431999 11.58 127.431999 12.948 Z"/>
    <path id="Wayne" fill="#ffffff" stroke="none" d="M 127.126442 23.561512 C 125.609848 23.561512 124.183708 23.338856 122.847984 22.893532 C 121.51226 22.448212 120.350479 21.848959 119.362602 21.09576 C 118.374725 20.342564 117.592087 19.468426 117.014664 18.473324 C 116.437241 17.478222 116.148537 16.425409 116.148537 15.314852 C 116.148537 13.984385 116.412895 12.750147 116.94162 11.612103 C 117.470337 10.474056 118.221672 9.487217 119.195633 8.65155 C 120.169601 7.815886 121.334854 7.164406 122.691452 6.697092 C 124.04805 6.22978 125.561142 5.996126 127.230797 5.996126 C 128.719559 5.996126 130.083099 6.18305 131.321426 6.5569 C 132.559753 6.93075 133.620667 7.442038 134.504181 8.090778 C 135.387711 8.739517 136.072952 9.5037 136.559937 10.38335 C 137.046921 11.262999 137.290405 12.203108 137.290405 13.203707 L 122.493179 13.203707 C 122.548836 14.138334 122.726234 15.028963 123.025383 15.875626 C 123.324532 16.722286 123.724548 17.467228 124.225441 18.11047 C 124.726334 18.753714 125.314178 19.265001 125.988998 19.644348 C 126.663818 20.023697 127.411674 20.213367 128.23259 20.213367 C 128.942184 20.213367 129.641342 20.117159 130.330078 19.924736 C 131.018799 19.732311 131.65535 19.468422 132.239731 19.133057 C 132.824097 18.797689 133.331955 18.407352 133.763275 17.96203 C 134.194611 17.516708 134.50766 17.035658 134.702454 16.518864 L 138 16.931198 C 137.666077 17.843834 137.133865 18.701477 136.403397 19.504156 C 135.672928 20.306835 134.817245 21.010544 133.836319 21.615301 C 132.855408 22.220058 131.787537 22.69561 130.63269 23.041973 C 129.477859 23.388334 128.309113 23.561512 127.126442 23.561512 Z M 129.860489 11.455416 C 129.80484 10.960613 129.669174 10.507053 129.453506 10.094717 C 129.237839 9.682381 128.963058 9.327778 128.62912 9.030897 C 128.295197 8.734018 127.905617 8.505861 127.460373 8.346424 C 127.015129 8.186989 126.535118 8.107271 126.020302 8.107271 C 125.616806 8.107271 125.220276 8.186989 124.830681 8.346424 C 124.441093 8.505861 124.089783 8.731268 123.776718 9.022652 C 123.463661 9.314034 123.199303 9.665886 122.983643 10.078224 C 122.767975 10.490561 122.625366 10.949617 122.555794 11.455416 Z M 104.878441 11.653336 C 104.878441 11.224506 104.819305 10.842417 104.701042 10.50705 C 104.582779 10.171682 104.42276 9.8913 104.221016 9.66589 C 104.019272 9.440481 103.789696 9.27005 103.532288 9.154598 C 103.274879 9.039145 103.00705 8.981417 102.728775 8.981417 C 102.450493 8.981417 102.130486 9.0254 101.76873 9.113363 C 101.406967 9.201326 101.027824 9.325027 100.631287 9.484465 C 100.234741 9.6439 99.827766 9.839069 99.410355 10.069977 C 98.992943 10.300882 98.596405 10.559277 98.220734 10.845163 L 98.220734 23.182167 L 91.709122 23.182167 L 91.709122 7.826885 L 96.279778 5.946646 L 98.220734 5.946646 L 98.220734 7.661951 C 99.222534 7.090181 100.293869 6.669607 101.434799 6.400213 C 102.575729 6.130819 103.709679 5.996126 104.8367 5.996126 C 105.713264 5.996126 106.544601 6.130819 107.330727 6.400213 C 108.116859 6.669607 108.80558 7.035202 109.396912 7.497019 C 109.988251 7.958836 110.457825 8.500357 110.805672 9.121611 C 111.153526 9.742865 111.327438 10.405336 111.327438 11.109056 L 111.327438 23.182167 L 104.878441 23.182167 Z M 67.123619 27.17355 C 67.262756 27.228527 67.447113 27.299997 67.676689 27.387962 C 67.906265 27.475927 68.156708 27.558393 68.428024 27.635363 C 68.699341 27.712332 68.988052 27.778305 69.294151 27.833282 C 69.600258 27.88826 69.906357 27.915749 70.212456 27.915749 C 70.462906 27.915749 70.713348 27.800297 70.963799 27.569389 C 71.214249 27.338482 71.450775 27.069094 71.673401 26.761217 C 71.896019 26.453341 72.094284 26.145468 72.268211 25.837591 C 72.442131 25.529715 72.570831 25.304308 72.654312 25.161366 L 74.511795 21.978153 L 64.097389 6.293007 L 70.942924 6.293007 L 77.684113 16.403412 L 83.653091 6.293007 L 88.22374 6.293007 L 76.411011 26.629271 C 76.021423 27.289007 75.527496 27.888256 74.929199 28.427042 C 74.33091 28.965828 73.676971 29.424887 72.967369 29.804234 C 72.257767 30.183582 71.516876 30.477711 70.744659 30.686626 C 69.972443 30.895544 69.210678 31 68.459335 31 C 67.833214 31 67.255798 30.942274 66.727074 30.82682 C 66.198357 30.711367 65.739204 30.538189 65.349625 30.307281 Z M 53.682983 14.473694 C 53.056862 14.68261 52.423798 14.935505 51.783764 15.232386 C 51.143734 15.529268 50.569798 15.861879 50.061943 16.230232 C 49.554092 16.598585 49.136684 17.005417 48.809711 17.450737 C 48.482738 17.896059 48.319252 18.371613 48.319252 18.877411 C 48.319252 19.438187 48.503609 19.878002 48.872322 20.196877 C 49.241039 20.515749 49.738445 20.675182 50.364567 20.675182 C 50.893291 20.675182 51.415051 20.551483 51.929859 20.304081 C 52.444668 20.056679 53.029037 19.735065 53.682983 19.339222 Z M 41.828514 10.58127 C 42.051132 9.87755 42.440716 9.237068 42.997265 8.659798 C 43.553814 8.082527 44.246014 7.593233 45.073883 7.191893 C 45.901756 6.790552 46.847874 6.479933 47.912277 6.260019 C 48.976681 6.040106 50.128025 5.930153 51.366352 5.930153 C 52.89687 5.930153 54.218655 6.040106 55.331757 6.260019 C 56.444862 6.479933 57.359676 6.790552 58.076237 7.191893 C 58.792793 7.593233 59.321507 8.077032 59.662395 8.643305 C 60.003284 9.209578 60.173725 9.844563 60.173725 10.548283 L 60.173725 20.213367 C 60.173725 20.906092 60.445038 21.494347 60.987675 21.978153 C 61.530315 22.46196 62.295563 22.863293 63.283436 23.182167 L 55.603073 23.182167 C 55.380455 23.182167 55.164795 23.132687 54.956089 23.033726 C 54.747383 22.934767 54.559547 22.805569 54.392582 22.646133 C 54.22562 22.486696 54.079525 22.313519 53.9543 22.126595 C 53.829079 21.939669 53.73864 21.758244 53.682983 21.582314 C 53.2934 21.868198 52.92469 22.129341 52.576847 22.365746 C 52.229 22.602152 51.846375 22.80282 51.428967 22.967754 C 51.011555 23.132687 50.545448 23.261883 50.03064 23.355347 C 49.515831 23.448811 48.896675 23.495541 48.173161 23.495541 C 47.185284 23.495541 46.298294 23.385586 45.512165 23.165672 C 44.726036 22.945763 44.058186 22.640636 43.508591 22.250294 C 42.959 21.859951 42.538113 21.39814 42.245922 20.864855 C 41.953735 20.33157 41.807644 19.75156 41.807644 19.124809 C 41.807644 18.157196 42.148525 17.327042 42.830299 16.634319 C 43.512074 15.941595 44.412975 15.336845 45.533035 14.820053 C 46.653095 14.303259 47.922703 13.852448 49.341911 13.4676 C 50.761116 13.082754 52.208126 12.714409 53.682983 12.362549 L 53.682983 10.713217 C 53.682983 10.174433 53.613419 9.715374 53.474277 9.336023 C 53.33514 8.956675 53.14035 8.648806 52.889904 8.412397 C 52.639458 8.175991 52.336834 8.005562 51.982037 7.901106 C 51.627235 7.796648 51.234177 7.744419 50.802849 7.744419 C 50.28804 7.744419 49.828892 7.821384 49.425392 7.975325 C 49.021893 8.129265 48.674053 8.338179 48.381866 8.602072 C 48.089676 8.865965 47.853146 9.168341 47.672268 9.509203 C 47.491386 9.850067 47.359207 10.20742 47.275726 10.58127 Z M 7.162532 0.817225 L 14.342001 15.265373 L 21.542339 0.569824 L 28.80529 15.1994 L 35.817795 0.817225 L 40.451057 0.817225 L 29.327055 23.512032 L 26.175602 23.512032 L 20.373589 11.851255 L 14.67593 23.512032 L 11.524477 23.512032 L 0.170898 0.817225 Z"/>
</svg>

<svg xmlns="http://www.w3.org/2000/svg" width="139" height="32" fill="none"><path fill="#FAFAFA" d="M15.596 15.756h11.592a.31.31 0 0 1 .288.288v.072c0 .144-.072.252-.216.288-.864.288-1.584 2.196-1.656 4.5v10.188c0 .108-.036.144-.108.144-.036 0-.072-.036-.108-.072A5.123 5.123 0 0 0 21.5 29.4c-.792 0-1.584.18-2.34.54-1.692.864-3.6 1.26-6.048 1.26C4.472 31.2.08 24.288.08 15.756S3.788.312 13.436.312c6.084 0 10.188 2.664 11.736 7.02.36 1.044.54 1.944.54 2.736 0 2.484-1.656 3.744-3.78 3.924h-.396c-2.088 0-3.888-1.296-4.176-4.212-.468-4.896-1.188-8.856-3.924-8.856-3.132 0-5.184 3.996-5.184 10.908v.864c.252 10.548 4.932 14.22 8.568 14.58h.072c.144 0 .252-.144.252-.288v-5.724c0-2.448-.72-4.572-1.62-4.86-.144-.036-.216-.144-.216-.288v-.072c0-.144.108-.288.288-.288Zm32.93 9.576a.303.303 0 0 1 .144.252c0 .036 0 .072-.036.108-1.008 2.304-3.96 5.508-9.216 5.508-6.552 0-10.44-4.752-10.44-10.656 0-.252 0-.54.036-.792 0-.216.036-.396.036-.612.576-5.22 4.32-9.216 10.368-9.216 7.02 0 9.54 4.716 9.972 9.216 0 .072 0 .144.036.216 0 .216-.144.396-.36.396H37.294a.323.323 0 0 0-.324.324c.072 1.44.612 7.272 6.228 7.272 1.548 0 3.96-.72 4.932-1.944.072-.072.144-.108.216-.108.072 0 .108 0 .18.036Zm-9.108-14.796c-1.656 0-2.484 2.988-2.484 7.956v.324c0 .18.18.324.36.324h3.852a.36.36 0 0 0 .36-.36c-.072-3.852-.432-8.244-2.088-8.244Zm27.964 7.632c-.216.036-.432.036-.648.036-2.412 0-3.528-1.656-3.708-4.176-.108-1.404-.792-1.8-1.188-1.8-.396 0-.756.108-1.512 1.584-.108.216-.18.432-.18.684v11.34c0 2.376.684 4.428 1.548 4.716.108.036.216.18.216.288v.072a.31.31 0 0 1-.288.288H50.606a.31.31 0 0 1-.288-.288v-.072c0-.108.108-.252.216-.288 1.008-.288 1.764-2.448 1.764-4.932V16.8c0-2.448-.504-4.32-1.656-4.86a.314.314 0 0 1-.216-.288v-.036c0-.18.144-.288.288-.288h.9c1.26 0 2.7-.072 4.284-.288 1.692-.288 2.7-.684 3.852-1.08.036 0 .072-.036.108-.036.144 0 .288.144.288.324v2.808c0 .036.036.072.072.072s.072 0 .072-.036c1.188-2.232 2.952-3.708 5.4-3.708 2.016 0 3.384 1.008 4.176 2.34.396.612.648 1.548.648 2.52 0 1.764-.828 3.6-3.132 3.924Zm14.785-8.244c6.588 0 10.44 4.752 10.44 10.62 0 5.904-3.852 10.656-10.44 10.656-6.552 0-10.404-4.752-10.404-10.656 0-5.868 3.852-10.62 10.404-10.62Zm0 20.664c2.16 0 2.448-4.5 2.448-10.044 0-5.544-.288-10.044-2.448-10.044-2.124 0-2.412 4.5-2.412 10.044 0 5.544.288 10.044 2.412 10.044Zm36.143-.036c.108.072.216.144.216.288v.072c0 .144-.144.288-.324.288h-6.012c-1.836 0-3.348-1.44-3.384-3.276 0-.036 0-.036-.036-.036 0 0-.036 0-.036.036-1.152 2.016-3.888 3.276-6.372 3.276-5.436 0-6.336-4.644-6.336-7.308v-7.2c0-2.376-.648-4.428-1.512-4.716-.144-.072-.216-.18-.216-.288v-.072c0-.18.108-.288.288-.288h.612c1.224 0 2.628-.072 4.14-.36a24.932 24.932 0 0 0 4.14-1.008c.036 0 .072-.036.108-.036.18 0 .324.144.324.324v14.184c0 3.276.18 4.896 2.088 4.896.36 0 1.62-.216 2.7-2.196.072-.072.108-.216.108-.324V16.692c0-2.376-.684-4.428-1.548-4.716-.144-.072-.216-.18-.216-.288v-.072c0-.18.144-.288.288-.288h.792c1.188 0 2.556-.072 4.068-.324a22.446 22.446 0 0 0 4.032-1.044c.036 0 .072-.036.108-.036.18 0 .324.144.324.324v15.588c0 2.448.468 4.212 1.656 4.716Zm9.122-17.604c0 5.472 11.34 5.904 11.376 12.276v.036c0 4.608-5.544 5.904-9.108 5.94-2.7 0-6.156-.612-7.992-1.944-1.008-.756-1.476-1.8-1.476-2.808 0-1.44 1.008-2.772 2.844-2.772h.072c1.62 0 2.88 1.368 2.916 2.952 0 1.908.18 3.96 2.808 3.96 1.692 0 2.88-1.224 2.88-2.664 0-4.464-11.232-5.976-11.268-11.772v-.036c0-5.184 5.4-6.192 8.64-6.192h.144c2.16 0 5.796.9 7.524 2.124.972.72 1.44 1.728 1.44 2.628 0 1.44-1.044 2.7-2.808 2.736h-.108c-1.476 0-2.52-1.188-2.808-2.628-.576-2.988-1.296-4.248-3.06-4.248-1.008 0-2.016 1.044-2.016 2.412Z"/></svg>
